src/shared/assets/Logo.svg

<svg width="72" height="72" viewBox="0 0 72 72" fill="none" xmlns="http://www.w3.org/2000/svg">
<path d="M61.4312 0H10.5688C4.73179 0 0 4.73179 0 10.5688V61.4312C0 67.2682 4.73179 72 10.5688 72H61.4312C67.2682 72 72 67.2682 72 61.4312V10.5688C72 4.73179 67.2682 0 61.4312 0Z" fill="#FF8400"/>
<path d="M59.5917 42.5735L54.3073 31.1041C53.1869 28.6731 51.54 26.6587 49.5649 25.14C46.7924 22.9938 43.3737 21.8179 39.8769 21.8179C39.4965 21.8179 39.116 21.8337 38.7356 21.8601C36.8647 21.9972 34.9834 22.477 33.1802 23.326C29.3342 25.14 26.4158 28.362 24.9618 32.4013C23.513 36.4407 23.7006 40.8069 25.4934 44.6986L26.3376 46.5284C28.5681 46.9767 30.8299 46.4335 32.6017 45.1468L31.1634 42.0251C30.0742 39.6626 29.9596 37.0155 30.8403 34.5634C31.721 32.1166 33.4929 30.1602 35.8224 29.0581C37.2086 28.4042 38.673 28.1142 40.1062 28.1511C43.4728 28.2302 46.683 30.0969 48.3715 33.2451C48.4653 33.4191 48.5539 33.5984 48.6373 33.7777L53.9217 45.247C55.0108 47.6095 55.1255 50.2619 54.2448 52.7087C53.364 55.1555 51.5922 57.1119 49.2574 58.214C44.5463 60.4393 38.944 58.4619 36.5989 53.8056C34.7853 54.8708 32.7841 55.6038 30.6735 55.9465L30.7777 56.168C33.4721 62.0161 39.2202 65.4542 45.2082 65.4542C47.4543 65.4542 49.7369 64.9691 51.8996 63.9514C55.7509 62.1321 58.6693 58.9101 60.1232 54.8708C61.572 50.8367 61.3844 46.4704 59.5917 42.5735Z" fill="#FFD4A6"/>
<path fill-rule="evenodd" clip-rule="evenodd" d="M22.3396 21.9852C22.3395 21.9854 22.3395 21.9855 22.3394 21.9857L17.9404 34.35C16.0679 39.61 18.7207 45.4322 23.8644 47.3496C29.0044 49.2657 34.6938 46.5513 36.5677 41.2881C36.5678 41.2879 36.5678 41.2877 36.5679 41.2875L40.9668 28.9238L40.967 28.9232C42.8394 23.6632 40.1866 17.841 35.0429 15.9236C29.9029 14.0076 24.2135 16.722 22.3396 21.9852ZM16.298 19.7336C19.3859 11.0593 28.7635 6.58017 37.2437 9.74136C45.7203 12.9012 50.0974 22.497 47.0086 31.1748C47.0085 31.175 47.0084 31.1751 47.0084 31.1753L42.6095 43.5391L42.6093 43.5396C39.5214 52.214 30.1439 56.6931 21.6636 53.5319C13.187 50.3721 8.80993 40.7763 11.8987 32.0985C11.8988 32.0983 11.8989 32.0981 11.8989 32.0979L16.298 19.7336Z" fill="#FFF4E8"/>
</svg>

<svg xmlns="http://www.w3.org/2000/svg" width="72" height="72" fill="none"><path fill="#FF8400" d="M61.431 0H10.57C4.732 0 0 4.732 0 10.569V61.43C0 67.268 4.732 72 10.569 72H61.43C67.268 72 72 67.268 72 61.431V10.57C72 4.732 67.268 0 61.431 0Z"/><path fill="#FFD4A6" d="m59.592 42.574-5.285-11.47a15.875 15.875 0 0 0-4.742-5.964 15.86 15.86 0 0 0-9.688-3.322 15.723 15.723 0 0 0-6.697 1.508c-3.846 1.814-6.764 5.036-8.218 9.075a16.172 16.172 0 0 0 .531 12.298l.845 1.83a7.985 7.985 0 0 0 6.264-1.382l-1.439-3.122a9.799 9.799 0 0 1-.323-7.462 9.668 9.668 0 0 1 4.982-5.505 9.449 9.449 0 0 1 4.284-.907 9.648 9.648 0 0 1 8.531 5.627l5.285 11.469a9.8 9.8 0 0 1 .323 7.462 9.66 9.66 0 0 1-4.988 5.505c-4.71 2.225-10.313.248-12.658-4.408a17.1 17.1 0 0 1-5.925 2.14l.104.222a15.903 15.903 0 0 0 14.43 9.286 15.69 15.69 0 0 0 6.692-1.503c3.85-1.819 6.77-5.04 8.223-9.08a16.174 16.174 0 0 0-.531-12.297Z"/><path fill="#FFF4E8" fill-rule="evenodd" d="m22.34 21.985-4.4 12.365c-1.872 5.26.78 11.082 5.924 13 5.14 1.916 10.83-.799 12.704-6.062l4.399-12.364c1.872-5.26-.78-11.083-5.924-13-5.14-1.916-10.83.798-12.703 6.061Zm-6.042-2.251C19.386 11.059 28.764 6.58 37.244 9.74c8.476 3.16 12.853 12.756 9.765 21.434l-4.4 12.364c-3.088 8.675-12.465 13.154-20.945 9.993-8.477-3.16-12.854-12.756-9.765-21.433v-.001l4.399-12.364Z" clip-rule="evenodd"/></svg>
